X: 105
T: The Headlands
C: Ronnie Cooper
M: 2/4
L: 1/16
K: A
Q: 1/8=120
|: "A" ue>uc | "D" (d>c)"E" (B>A) "A" (A<c)(e>c) | "D" d>(cd<f) "A" e2((3efg) |
"A" a>(ef<a) "F#m" (f>e)(d>c) | "A" c>(BA<c) "E7" B2(e>c) | "D" (d>c)"E"(B>A) "A" (A<c)(e>c) |
"D" d>(cd<f) "D" a2(g>f) | "A" (e<a)(A>c) "Bm" (B<d)"E7"(e>d) | "A" c2"D"A2 "A" A2 :|
|: ((3efg) | "A" a>(ef<a) (c<e)(c>A) | "D" d>(Ad>f) "E" e2((3efg) |
"A" a>(ef<a) "D" (f>e)(d>c) | "A" c>(BA<c) "E" B2((3efg) | "A" a>(ef<a) (c<e)(c>A) |
"D" d>(Ad<f) "D#dim7" a2(g>f) | "A" (e<a)"F#m"(A>c) "Bm" (B>f)"E7"(e>d) | "A" c2"D"A2 "A" A2 :|

%% transpose 0
